X:1
T:Title
%%score { 1 | ( 2 3 ) }
L:1/8
M:6/8
K:Eb
V:1 treble nm="Grand Piano"
V:2 bass 
V:3 bass 
V:1
 z3 z2[Q:1/4=90] [EG]/[FA]/ | [GB]>[Ac][GB] [EG][FA][GB] | c2 c e2 [Bd]/[Ac]/ | [GB]>[Ac][GB] GFE | %4
 [EG]3 [DF]2 [EG]/[FA]/ | [GB]>[Ac][GB] [EG][FA][GB] | c2 c e2 [Bd]/[Ac]/ | %7
 [GB]>[Ac][GB] [B,EG][DF][G,E] | [A,DF]3 .[G,E]3 | [Ec]2 [EAc] [Cce]>[DBd][EAc] | %10
 [GB]>[Ac][GB] [EG]3 | [FA]>[GB][FA] [DF]2 [DAc] | [GB]>[Ac][GB] GAB | c2 c e>d[Ec] | %14
[M:7/8] [EB]3 [Ee]3 [E=A] |[M:3/4] [EB]>[Ec] [EB][EG]- [EG]/[FA]/[DF] |[M:5/8] E-E- E3 |] %17
V:2
 z3 z2 [E,B,]/[E,B,]/ | [E,E]2 [E,E] [E,B,][E,B,][E,E] | [A,EA]2 [A,EA] [A,CA]2 [A,D]/[A,E]/ | %3
 [E,E]>[E,E][E,E] [B,E][A,D][E,G,] | [B,,B,]3 [B,,B,]2 [E,B,]/[E,B,]/ | %5
 [E,E]2 [E,E] [E,B,][E,B,][E,E] | [A,EA]2 [A,EA] [A,CA]2 [A,D]/[A,E]/ | [E,E]>[E,E][E,E] z A,E, | %8
 B,,3 .E,3 | [A,,A,]2 [A,,A,] [A,,A,]>[A,,A,][A,,A,] | [E,E]>[E,E][E,E] [E,B,]3 | %11
 [B,,B,]>[B,,B,][B,,B,] [B,,B,]2 B,, | [E,E]>[E,E][E,E] B,-[F,B,D][G,B,E] | %13
 [A,E]2 [A,E] C>B,[A,,A,] |[M:7/8] [E,G,]3 [C,G,]3 [=B,,_G,] | %15
[M:3/4] [B,,G,]>[B,,A,] [B,,G,][B,,B,]- [B,,B,]/[B,,B,]/[B,,A,] |[M:5/8] [E,G,]-[E,G,]- [E,G,]3 |] %17
V:3
 x6 | x6 | x6 | z3 .E,3 | x6 | x6 | x6 | z3 .E,3 | x6 | x6 | x6 | x6 | z3 .[E,E]3 | z3 .[A,,E]3 | %14
[M:7/8] x7 |[M:3/4] x6 |[M:5/8] x5 |] %17

